static/assets/images/networks/polygon.svg

<svg width="256" height="256" viewBox="0 0 256 256" fill="none" xmlns="http://www.w3.org/2000/svg">
<path d="M256 128C256 161.948 242.514 194.505 218.51 218.51C194.505 242.514 161.948 256 128 256C94.0523 256 61.495 242.514 37.4903 218.51C13.4857 194.505 0 161.948 0 128C0 94.0523 13.4857 61.495 37.4903 37.4903C61.495 13.4857 94.0523 0 128 0C161.948 0 194.505 13.4857 218.51 37.4903C242.514 61.495 256 94.0523 256 128Z" fill="#734FD9"/>
<path d="M172.145 97.8182C168.883 95.9525 164.69 95.9525 160.963 97.8182L134.874 113.21L117.171 123.005L91.5473 138.397C88.2861 140.262 84.0932 140.262 80.3662 138.397L60.3334 126.27C57.0722 124.404 54.7428 120.673 54.7428 116.475V93.1539C54.7428 89.4226 56.6063 85.6912 60.3334 83.3591L80.3662 71.6986C83.6273 69.8329 87.8203 69.8329 91.5473 71.6986L111.58 83.8255C114.841 85.6912 117.171 89.4226 117.171 93.6204V109.012L134.874 98.751V82.8927C134.874 79.1613 133.01 75.4299 129.283 73.0978L92.0132 51.176C88.752 49.3103 84.5591 49.3103 80.8321 51.176L42.6299 73.5642C38.9029 75.4299 37.0394 79.1613 37.0394 82.8927V126.736C37.0394 130.468 38.9029 134.199 42.6299 136.531L80.3662 158.453C83.6273 160.318 87.8203 160.318 91.5473 158.453L117.171 143.527L134.874 133.266L160.498 118.341C163.759 116.475 167.952 116.475 171.679 118.341L191.711 130.001C194.973 131.867 197.302 135.598 197.302 139.796V163.117C197.302 166.848 195.439 170.58 191.711 172.912L172.145 184.572C168.883 186.438 164.69 186.438 160.963 184.572L140.931 172.912C137.669 171.046 135.34 167.315 135.34 163.117V148.192L117.637 158.453V173.845C117.637 177.576 119.5 181.307 123.227 183.64L160.963 205.561C164.225 207.427 168.417 207.427 172.145 205.561L209.881 183.64C213.142 181.774 215.471 178.042 215.471 173.845V129.535C215.471 125.803 213.608 122.072 209.881 119.74L172.145 97.8182Z" fill="white"/>
</svg>

<svg xmlns="http://www.w3.org/2000/svg" fill="none" viewBox="0 0 256 256"><path fill="#734FD9" d="M256 128a128 128 0 0 1-37.49 90.51 128.003 128.003 0 0 1-181.02 0A128.001 128.001 0 1 1 256 128"/><path fill="#fff" d="M172.145 97.818c-3.262-1.865-7.455-1.865-11.182 0l-26.089 15.392-17.703 9.795-25.624 15.392c-3.26 1.865-7.454 1.865-11.18 0L60.332 126.27c-3.26-1.866-5.59-5.597-5.59-9.795V93.154c0-3.731 1.863-7.463 5.59-9.795L80.366 71.7c3.261-1.866 7.454-1.866 11.181 0l20.033 12.127c3.261 1.865 5.591 5.597 5.591 9.794v15.392l17.703-10.261V82.893c0-3.732-1.864-7.463-5.591-9.795l-37.27-21.922c-3.261-1.866-7.454-1.866-11.18 0L42.63 73.564c-3.727 1.866-5.59 5.597-5.59 9.329v43.843c0 3.732 1.863 7.463 5.59 9.795l37.736 21.922c3.261 1.865 7.454 1.865 11.181 0l25.624-14.926 17.703-10.261 25.624-14.925c3.261-1.866 7.454-1.866 11.181 0l20.032 11.66c3.262 1.866 5.591 5.597 5.591 9.795v23.321c0 3.731-1.863 7.463-5.591 9.795l-19.566 11.66c-3.262 1.866-7.455 1.866-11.182 0l-20.032-11.66c-3.262-1.866-5.591-5.597-5.591-9.795v-14.925l-17.703 10.261v15.392c0 3.731 1.863 7.462 5.59 9.795l37.736 21.921c3.262 1.866 7.454 1.866 11.182 0l37.736-21.921c3.261-1.866 5.59-5.598 5.59-9.795v-44.31c0-3.732-1.863-7.463-5.59-9.795z"/></svg>
